third_party/noto/noto_2/emoji_u2668.svg

<svg enable-background="new 0 0 128 128" viewBox="0 0 128 128" xmlns="http://www.w3.org/2000/svg"><radialGradient id="d" cx="65.109" cy="90.276" r="51.875" gradientTransform="matrix(1 0 0 .6833 0 28.638)" gradientUnits="userSpaceOnUse"><stop stop-color="#EF5350" offset="0"/><stop stop-color="#EF5350" offset=".4651"/><stop stop-color="#D32F2F" offset="1"/></radialGradient><path d="M110.78,65.37c-0.86-0.64-2.01,0.38-1.46,1.31c1.73,2.89,2.68,6,2.68,9.24 c0,15.49-21.49,28.05-48,28.05S16,91.41,16,75.92c0-3.24,0.94-6.35,2.68-9.24c0.55-0.92-0.6-1.95-1.46-1.31 C8.95,71.55,4,79.4,4,87.94C4,107.86,30.86,124,64,124s60-16.14,60-36.06C124,79.4,119.05,71.55,110.78,65.37z" fill="url(#d)"/><radialGradient id="c" cx="64" cy="4.2752" r="79.863" gradientTransform="matrix(1.0287e-13 1.0017 -.5697 5.8704e-14 66.436 -59.932)" gradientUnits="userSpaceOnUse"><stop stop-color="#EF5350" offset="0"/><stop stop-color="#EF5350" offset=".4508"/><stop stop-color="#E64845" offset=".6107"/><stop stop-color="#D32F2F" offset="1"/></radialGradient><path d="m57.29 82.59c-0.25 0.95 0.81 1.71 1.63 1.15 6.61-4.53 23.61-18.88 13.54-41.31-7.22-16.06-4.63-30.77-2.91-37.07 0.28-1.01-0.91-1.78-1.71-1.11-6.38 5.4-21.04 20.66-13.11 41.65 6.44 17.04 4.05 31.04 2.56 36.69z" fill="url(#c)"/><radialGradient id="b" cx="31" cy="11.15" r="72.36" gradientTransform="matrix(1.0287e-13 1.0017 -.6495 6.6927e-14 38.242 -19.99)" gradientUnits="userSpaceOnUse"><stop stop-color="#EF5350" offset="0"/><stop stop-color="#EF5350" offset=".3665"/><stop stop-color="#DC3B3A" offset=".8056"/><stop stop-color="#D32F2F" offset="1"/></radialGradient><path d="m28.36 82.73c-0.22 0.85 0.73 1.53 1.46 1.03 5.92-4.06 21.16-16.92 12.13-37.02-6.47-14.39-4.15-27.57-2.61-33.22 0.25-0.91-0.81-1.6-1.53-0.99-5.72 4.84-18.86 18.52-11.74 37.32 5.76 15.27 3.62 27.81 2.29 32.88z" fill="url(#b)"/><radialGradient id="a" cx="92.125" cy="11.775" r="72.376" gradientTransform="matrix(1.0287e-13 1.0017 -.4266 4.3956e-14 97.148 -80.591)" gradientUnits="userSpaceOnUse"><stop stop-color="#EF5350" offset="0"/><stop stop-color="#EF5350" offset=".3973"/><stop stop-color="#DE3D3C" offset=".7223"/><stop stop-color="#D32F2F" offset="1"/></radialGradient><path d="m87.62 82.73c-0.22 0.85 0.73 1.53 1.46 1.03 5.92-4.06 21.16-16.92 12.13-37.02-6.47-14.39-4.15-27.57-2.61-33.22 0.25-0.91-0.81-1.6-1.53-0.99-5.72 4.84-18.86 18.52-11.74 37.32 5.76 15.27 3.62 27.81 2.29 32.88z" fill="url(#a)"/><g opacity=".2"><path d="m114.79 73.04c5 5.63 6.21 11 6.21 14.9 0 8.54-5.72 16.68-16.12 22.93-10.87 6.53-25.39 10.13-40.88 10.13s-30.01-3.6-40.88-10.13c-10.4-6.25-16.12-14.39-16.12-22.93 0-6.02 2.77-11.01 6.21-14.89-0.14 0.95-0.21 1.91-0.21 2.87 0 8.6 5.52 16.56 15.55 22.42 9.52 5.56 22.11 8.62 35.45 8.62s25.94-3.06 35.45-8.62c10.03-5.86 15.55-13.82 15.55-22.42 0-0.97-0.07-1.93-0.21-2.88m-4.59-7.87c-0.7 0-1.31 0.78-0.87 1.51 1.73 2.89 2.68 6 2.68 9.24 0 15.49-21.49 28.05-48 28.05s-48.01-12.56-48.01-28.05c0-3.24 0.94-6.35 2.68-9.24 0.43-0.72-0.18-1.51-0.87-1.51-0.2 0-0.4 0.06-0.59 0.2-8.27 6.18-13.22 14.03-13.22 22.57 0 19.92 26.86 36.06 60 36.06s60-16.14 60-36.06c0-8.54-4.95-16.39-13.22-22.57-0.18-0.14-0.39-0.2-0.58-0.2z" fill="#424242"/></g><g opacity=".2"><path d="m65.35 10.8c-1.18 7.82-1.42 19.97 4.37 32.86 7.46 16.6-1.37 28.32-8.46 34.48 1.13-7.35 1.53-19.42-3.72-33.3-5.75-15.18 1.52-27.17 7.81-34.04m3.16-6.8c-0.23 0-0.47 0.08-0.68 0.26-6.38 5.4-21.04 20.66-13.11 41.65 6.44 17.03 4.05 31.03 2.56 36.69-0.19 0.73 0.38 1.34 1.03 1.34 0.2 0 0.41-0.06 0.6-0.19 6.61-4.53 23.61-18.88 13.54-41.31-7.22-16.06-4.63-30.77-2.91-37.07 0.21-0.75-0.38-1.37-1.03-1.37z" fill="#424242"/></g><g opacity=".2"><path d="m35.12 19.38c-0.93 7.06-0.89 17.53 4.08 28.6 6.38 14.2-0.71 24.37-6.86 29.97 0.92-6.68 1.06-17.17-3.48-29.15-4.88-12.91 0.86-23.22 6.26-29.42m3.29-7.07c-0.21 0-0.42 0.07-0.61 0.23-5.72 4.84-18.86 18.52-11.74 37.32 5.77 15.26 3.63 27.81 2.3 32.87-0.17 0.65 0.34 1.2 0.92 1.2 0.18 0 0.36-0.05 0.54-0.17 5.92-4.06 21.16-16.92 12.13-37.02-6.47-14.39-4.15-27.57-2.61-33.22 0.18-0.66-0.35-1.21-0.93-1.21z" fill="#424242"/></g><g opacity=".2"><path d="m94.39 19.38c-0.93 7.06-0.89 17.53 4.08 28.6 6.38 14.2-0.71 24.37-6.86 29.97 0.92-6.68 1.06-17.17-3.48-29.15-4.88-12.91 0.86-23.22 6.26-29.42m3.28-7.07c-0.21 0-0.42 0.07-0.61 0.23-5.72 4.84-18.86 18.52-11.74 37.32 5.77 15.26 3.63 27.81 2.3 32.87-0.17 0.65 0.34 1.2 0.92 1.2 0.18 0 0.36-0.05 0.54-0.17 5.92-4.06 21.16-16.92 12.13-37.02-6.47-14.39-4.15-27.57-2.61-33.22 0.18-0.66-0.35-1.21-0.93-1.21z" fill="#424242"/></g></svg>

<svg width="128" height="128" style="enable-background:new 0 0 128 128;" xmlns="http://www.w3.org/2000/svg" xmlns:xlink="http://www.w3.org/1999/xlink">
  <radialGradient id="SVGID_1_" cx="65.1093" cy="90.2758" gradientTransform="matrix(1 0 0 0.6833 0 28.6375)" gradientUnits="userSpaceOnUse" r="51.875">
    <stop offset="0" style="stop-color:#EF5350"/>
    <stop offset="0.4651" style="stop-color:#EF5350"/>
    <stop offset="1" style="stop-color:#D32F2F"/>
  </radialGradient>
  <path d="M110.78,65.37c-0.86-0.64-2.01,0.38-1.46,1.31c1.73,2.89,2.68,6,2.68,9.24 c0,15.49-21.49,28.05-48,28.05S16,91.41,16,75.92c0-3.24,0.94-6.35,2.68-9.24c0.55-0.92-0.6-1.95-1.46-1.31 C8.95,71.55,4,79.4,4,87.94C4,107.86,30.86,124,64,124s60-16.14,60-36.06C124,79.4,119.05,71.55,110.78,65.37z" style="fill:url(#SVGID_1_);"/>
  <radialGradient id="SVGID_2_" cx="64" cy="4.2752" gradientTransform="matrix(4.499940e-11 1.0017 -0.5697 2.568006e-11 66.4357 -59.9316)" gradientUnits="userSpaceOnUse" r="79.8632">
    <stop offset="0" style="stop-color:#EF5350"/>
    <stop offset="0.4508" style="stop-color:#EF5350"/>
    <stop offset="0.6107" style="stop-color:#E64845"/>
    <stop offset="1" style="stop-color:#D32F2F"/>
  </radialGradient>
  <path d="M57.29,82.59c-0.25,0.95,0.81,1.71,1.63,1.15c6.61-4.53,23.61-18.88,13.54-41.31 c-7.22-16.06-4.63-30.77-2.91-37.07c0.28-1.01-0.91-1.78-1.71-1.11c-6.38,5.4-21.04,20.66-13.11,41.65 C61.17,62.94,58.78,76.94,57.29,82.59z" style="fill:url(#SVGID_2_);"/>
  <radialGradient id="SVGID_3_" cx="31" cy="11.1502" gradientTransform="matrix(4.499940e-11 1.0017 -0.6495 2.927731e-11 38.2424 -19.99)" gradientUnits="userSpaceOnUse" r="72.3599">
    <stop offset="0" style="stop-color:#EF5350"/>
    <stop offset="0.3665" style="stop-color:#EF5350"/>
    <stop offset="0.8056" style="stop-color:#DC3B3A"/>
    <stop offset="1" style="stop-color:#D32F2F"/>
  </radialGradient>
  <path d="M28.36,82.73c-0.22,0.85,0.73,1.53,1.46,1.03c5.92-4.06,21.16-16.92,12.13-37.02 c-6.47-14.39-4.15-27.57-2.61-33.22c0.25-0.91-0.81-1.6-1.53-0.99c-5.72,4.84-18.86,18.52-11.74,37.32 C31.83,65.12,29.69,77.66,28.36,82.73z" style="fill:url(#SVGID_3_);"/>
  <radialGradient id="SVGID_4_" cx="92.125" cy="11.7752" gradientTransform="matrix(4.499940e-11 1.0017 -0.4266 1.922845e-11 97.1482 -80.591)" gradientUnits="userSpaceOnUse" r="72.3759">
    <stop offset="0" style="stop-color:#EF5350"/>
    <stop offset="0.3973" style="stop-color:#EF5350"/>
    <stop offset="0.7223" style="stop-color:#DE3D3C"/>
    <stop offset="1" style="stop-color:#D32F2F"/>
  </radialGradient>
  <path d="M87.62,82.73c-0.22,0.85,0.73,1.53,1.46,1.03c5.92-4.06,21.16-16.92,12.13-37.02 c-6.47-14.39-4.15-27.57-2.61-33.22c0.25-0.91-0.81-1.6-1.53-0.99c-5.72,4.84-18.86,18.52-11.74,37.32 C91.09,65.12,88.95,77.66,87.62,82.73z" style="fill:url(#SVGID_4_);"/>
  <g style="opacity:0.2;">
    <path d="M114.79,73.04c5,5.63,6.21,11,6.21,14.9c0,8.54-5.72,16.68-16.12,22.93 C94.01,117.4,79.49,121,64,121s-30.01-3.6-40.88-10.13C12.72,104.62,7,96.48,7,87.94c0-6.02,2.77-11.01,6.21-14.89 C13.07,74,13,74.96,13,75.92c0,8.6,5.52,16.56,15.55,22.42c9.52,5.56,22.11,8.62,35.45,8.62s25.94-3.06,35.45-8.62 C109.48,92.48,115,84.52,115,75.92C115,74.95,114.93,73.99,114.79,73.04 M110.2,65.17c-0.7,0-1.31,0.78-0.87,1.51 c1.73,2.89,2.68,6,2.68,9.24c0,15.49-21.49,28.05-48,28.05S16,91.41,16,75.92c0-3.24,0.94-6.35,2.68-9.24 c0.43-0.72-0.18-1.51-0.87-1.51c-0.2,0-0.4,0.06-0.59,0.2C8.95,71.55,4,79.4,4,87.94C4,107.86,30.86,124,64,124s60-16.14,60-36.06 c0-8.54-4.95-16.39-13.22-22.57C110.6,65.23,110.39,65.17,110.2,65.17L110.2,65.17z" style="fill:#424242;"/>
  </g>
  <g style="opacity:0.2;">
    <path d="M65.35,10.8c-1.18,7.82-1.42,19.97,4.37,32.86c7.46,16.6-1.37,28.32-8.46,34.48 c1.13-7.35,1.53-19.42-3.72-33.3C51.79,29.66,59.06,17.67,65.35,10.8 M68.51,4c-0.23,0-0.47,0.08-0.68,0.26 c-6.38,5.4-21.04,20.66-13.11,41.65c6.44,17.03,4.05,31.03,2.56,36.69c-0.19,0.73,0.38,1.34,1.03,1.34c0.2,0,0.41-0.06,0.6-0.19 c6.61-4.53,23.61-18.88,13.54-41.31c-7.22-16.06-4.63-30.77-2.91-37.07C69.75,4.62,69.16,4,68.51,4L68.51,4z" style="fill:#424242;"/>
  </g>
  <g style="opacity:0.2;">
    <path d="M35.12,19.38c-0.93,7.06-0.89,17.53,4.08,28.6c6.38,14.2-0.71,24.37-6.86,29.97 c0.92-6.68,1.06-17.17-3.48-29.15C23.98,35.89,29.72,25.58,35.12,19.38 M38.41,12.31c-0.21,0-0.42,0.07-0.61,0.23 c-5.72,4.84-18.86,18.52-11.74,37.32c5.77,15.26,3.63,27.81,2.3,32.87c-0.17,0.65,0.34,1.2,0.92,1.2c0.18,0,0.36-0.05,0.54-0.17 c5.92-4.06,21.16-16.92,12.13-37.02c-6.47-14.39-4.15-27.57-2.61-33.22C39.52,12.86,38.99,12.31,38.41,12.31L38.41,12.31z" style="fill:#424242;"/>
  </g>
  <g style="opacity:0.2;">
    <path d="M94.39,19.38c-0.93,7.06-0.89,17.53,4.08,28.6c6.38,14.2-0.71,24.37-6.86,29.97 c0.92-6.68,1.06-17.17-3.48-29.15C83.25,35.89,88.99,25.58,94.39,19.38 M97.67,12.31c-0.21,0-0.42,0.07-0.61,0.23 c-5.72,4.84-18.86,18.52-11.74,37.32c5.77,15.26,3.63,27.81,2.3,32.87c-0.17,0.65,0.34,1.2,0.92,1.2c0.18,0,0.36-0.05,0.54-0.17 c5.92-4.06,21.16-16.92,12.13-37.02c-6.47-14.39-4.15-27.57-2.61-33.22C98.78,12.86,98.25,12.31,97.67,12.31L97.67,12.31z" style="fill:#424242;"/>
  </g>
</svg>
